X: 23873
T: Llanthony Abbey
R: hornpipe
M: 4/4
K: Gmajor
|:dBdg bgdB|cAcf afcA|BGBd gdBG|A2 A2 A4|
dBdg bgdB|cAcf afcA|B2 g2 A2 f2|g2 g2 g4:|
|:cABc defg|agfe dcBA|BGAB cdef|g2 d2 B4|
cABc defg|agfe dcBA|B2 g2 A2 f2|g2 g2 g4:|

